brandFactory_export/3.Masa/Detalle de llamadas_3Masa.svg

<?xml version="1.0" encoding="UTF-8"?>
<svg width="24px" height="24px" viewBox="0 0 24 24" version="1.1" xmlns="http://www.w3.org/2000/svg" xmlns:xlink="http://www.w3.org/1999/xlink">
    <title>3.Masa/Detalle de llamadas_3Masa</title>
    <g id="Symbols" stroke="none" stroke-width="1" fill="none" fill-rule="evenodd">
        <g id="3.Masa/Detalle-de-llamadas_3Masa" fill="#5CB615" fill-rule="nonzero">
            <path d="M23.5411765,6.40336134 L16.9865546,0.18487395 C16.8621849,0.0672268908 16.697479,0 16.5260504,0 L7.66890756,0 C6.98655462,0 6.34117647,0.645378151 6.34117647,1.32773109 L6.34117647,3.13613445 C5.84033613,2.82352941 5.32605042,2.66218487 4.80840336,2.65210084 C3.95462185,2.63529412 3.10084034,3.03193277 2.27058824,3.82521008 C1.97815126,4.10420168 1.70252101,4.48739496 1.61176471,4.61176471 L1.60168067,4.62521008 C1.59495798,4.63529412 1.58823529,4.64201681 1.58151261,4.65210084 C0.818487395,5.75798319 0.831932773,7.45546218 1.61848739,9.43193277 C2.42857143,11.4655462 4.00504202,13.6840336 6.17310924,15.8521008 L6.17983193,15.8588235 L6.24369748,15.9260504 L6.25042017,15.9327731 C6.30420168,15.9865546 6.36134454,16.0403361 6.41512605,16.0941176 C6.36806723,16.1882353 6.34117647,16.292437 6.34117647,16.3966387 L6.34117647,22.302521 C6.34117647,23.0084034 6.96302521,23.6302521 7.66890756,23.6302521 L22.4252101,23.6302521 C23.1310924,23.6302521 23.7529412,23.0084034 23.7529412,22.302521 L23.7529412,6.8907563 C23.7529412,6.70588235 23.6756303,6.53109244 23.5411765,6.40336134 Z M22.0857143,6.87394958 L19.4672269,6.87394958 C18.6840336,6.87394958 18.0285714,6.62857143 17.5680672,6.16806723 C17.107563,5.70756303 16.8621849,5.0487395 16.8621849,4.26890756 L16.8621849,1.91932773 L22.0857143,6.87394958 Z M2.86890756,8.93781513 C2.26386555,7.42521008 2.19663866,6.14789916 2.68403361,5.42857143 L2.70420168,5.39831933 C2.94621849,5.06218487 3.10756303,4.88403361 3.20168067,4.79663866 C4.31764706,3.73109244 5.20504202,3.72773109 6.2605042,4.78655462 C6.46890756,4.99159664 6.65042017,5.22016807 6.80168067,5.46890756 L6.81176471,5.48907563 C7.13109244,6 7.42689076,6.81008403 6.31092437,7.92268908 C6.18655462,8.05042017 6.05210084,8.16806723 5.91092437,8.27226891 C5.88403361,8.29579832 5.85714286,8.31932773 5.83361345,8.34285714 C5.60504202,8.59159664 5.36638655,9.03529412 5.54453782,9.72773109 C5.63865546,10.1008403 5.84369748,10.5142857 6.17310924,10.9915966 C6.64369748,11.6806723 7.34621849,12.4773109 8.4487395,13.5798319 L8.52605042,13.6571429 C9.62857143,14.7596639 10.4252101,15.4588235 11.1142857,15.9327731 C11.5915966,16.2621849 12.005042,16.4672269 12.3781513,16.5613445 C13.0705882,16.7361345 13.5142857,16.5008403 13.7630252,16.2722689 C13.789916,16.2487395 13.8134454,16.2218487 13.8336134,16.194958 C13.9411765,16.0537815 14.0588235,15.9193277 14.1865546,15.794958 C15.2991597,14.6823529 16.1092437,14.9747899 16.6201681,15.2941176 L16.6403361,15.3042017 C16.8890756,15.4554622 17.1210084,15.6369748 17.3226891,15.8453782 C18.3815126,16.9042017 18.3781513,17.7882353 17.312605,18.9042017 C17.2252101,18.99495 17.0504202,19.1563025 16.7109244,19.4016807 L16.6806723,19.4218487 C15.9579832,19.9092437 14.6806723,19.8420168 13.1680672,19.2369748 C10.8151261,18.2991597 8.62689076,16.4067227 7.20504202,14.9848739 L7.17142857,14.9512605 L7.15798319,14.9378151 L7.1210084,14.9042017 C5.69915966,13.4789916 3.80672269,11.2907563 2.86890756,8.93781513 Z" id="Detalle-de-llamadas_3Masa"></path>
        </g>
    </g>
</svg>

<svg width="24" height="24" viewBox="0 0 24 24" xmlns="http://www.w3.org/2000/svg"><path d="M23.541 6.403L16.987.185a.672.672 0 00-.46-.185H7.668C6.987 0 6.34.645 6.34 1.328v1.808c-.5-.312-1.015-.474-1.533-.484-.853-.017-1.707.38-2.537 1.173-.293.28-.568.662-.66.787l-.01.013c-.006.01-.013.017-.02.027-.763 1.106-.75 2.803.037 4.78.81 2.034 2.387 4.252 4.555 6.42l.007.007.064.067.006.007.165.161a.681.681 0 00-.074.303v5.906c0 .705.622 1.327 1.328 1.327h14.756c.706 0 1.328-.622 1.328-1.327V6.89a.672.672 0 00-.212-.488zm-1.455.47h-2.619c-.783 0-1.438-.244-1.899-.705-.46-.46-.706-1.12-.706-1.9V1.92l5.224 4.955zM2.869 8.939c-.605-1.513-.672-2.79-.185-3.51l.02-.03c.242-.336.404-.514.498-.601 1.116-1.066 2.003-1.07 3.059-.01.208.205.39.433.54.682l.01.02c.32.511.616 1.321-.5 2.434a3.274 3.274 0 01-.4.35 1.612 1.612 0 00-.077.07c-.229.249-.468.692-.29 1.385.095.373.3.786.63 1.264.47.689 1.172 1.485 2.275 2.588l.077.077c1.103 1.103 1.9 1.802 2.588 2.276.478.33.891.534 1.264.628.693.175 1.136-.06 1.385-.289a.506.506 0 00.07-.077 3.62 3.62 0 01.354-.4c1.112-1.113 1.922-.82 2.433-.5l.02.01c.25.15.481.332.683.54 1.059 1.06 1.055 1.943-.01 3.06a4.52 4.52 0 01-.602.497l-.03.02c-.723.487-2 .42-3.513-.185-2.353-.938-4.541-2.83-5.963-4.252l-.034-.034-.013-.013-.037-.034c-1.422-1.425-3.314-3.613-4.252-5.966z" fill="#5CB615" fill-rule="nonzero"/></svg>
